X: 1093
T: Hâtır-ı Nâşâdı Gel Gör
C: Tanburî Cemil Bey
O: Turkey
F: http://compmusic.upf.edu/node/140
N: segah--sarki--agiraksak--hatir-i_nasadi--tanburi_cemil_bey
N: makam= segah
N: form= sarki
N: usul= agiraksak = 9/4
M: 9/4
L: 1/16
K: C _1/4B _1/4e ^f 
Q: 1/4=72
%%MIDI tuningsystem comma53
z8 z2^A4B2 A2B2 c2{e}dc A4 B4 A4  | \
w:  Hâ tır_ ı  *  *  *  *  *  nâ  | 
B^AGA G2F2 z2G4A2 B2c2 d2{e}dc c2B4A2 Bc2B  | 
w:  *  *  *  *  *  *  şâ dı  gel  *  *  *  *  *  gör   | 
B8 z2d4cB A6z2 B3c d2e2 f2ed  | d2g4gf f2a4gf f3e feed d6de dcBc  | 
w:  *  bir  ne *  fes  şâd_  |  *  et  *  *  *  *  *  *  *  *  *  *  be *  ni   SAZ  | 
d8 z2d4g2 aggf g4 a3g f2e2 g3f  | \
w:  *  Kayd_ ı  hic *  *  *  *  rân  | 
f2e4d2 z2d4ag gf2e feed d6c2 d2{f}ed  | 
w:  *  *  *  dan  a  *  za *  *  *  *  *  *  lim   | 
d8 z2e2 d2c2 B^AB6 g2fg a2gf f2e2  | \
w:  *  ar *  tık_ a *  *  zâd_  | 
e2f4ed d2g4fe d3c dccB B6d'c' c'bb^a  | 
w:  *  et  *  *  *  *  *  *  *  *  *  *  be *  ni   SAZ  | 
b8 z2g4^a2 b2ab c'2{d'}c'b b8 {e'}d'4  | \
w:  *  Has re tin *  *  *  *  *  *  le   | 
d'c'b^a g2f2 z2c'4c'b a2g2 bc'{d'}c'b b6a2 b2{d'}c'b  | 
w:  *  *  *  *  *  *  pek  ha *  râ *  *  *  *  *  *  bım   | 
b8 z2g4gf f3e e2d2 d3e f2g2 a2{b}ag  | \
w:  *  ba ri  *  â *  *  *  bâd_  | 
f2g4f2 g2fg a2gf f3e feed d6d'c' c'bb^a  | 
w:  et  *  *  *  *  *  *  *  *  *  *  *  *  be *  ni   SAZ  | 
b8 z2g4^a2 b2ab c'2{d'}c'b b8 {e'}d'4  | \
w:  *  Has re tin *  *  *  *  *  *  le   | 
d'c'b^a g2f2 z2c'4c'b a2g2 bc'{d'}c'b b6a2 b2{d'}c'b  | 
w:  *  *  *  *  *  *  pek  ha *  râ *  *  *  *  *  *  bım   | 
b8 z2g4gf f3e e2d2 d3e f2g2 a2{b}ag  | \
w:  *  ba ri  *  â *  *  *  bâd_  | 
f2g4fe e2g4fe d3c dccB B8 z4  | 
w:  et  *  *  *  *  *  *  *  *  *  *  *  be *  ni    | 
z16  | G4B2B4B4z2  | d4B2c2BAA4z2  | G4cBB4d4cB  | \
w:  |  Ey  ce fâ  cû   |  ey le  in *  *  saf   |  â şık_ *  ı  bî  | 
e2dccBB4B2^A2G2  | 
w:  çâ *  *  re *  ne   SAZ  | 
G4B2B4B4z2  | d4B2c2BAA4z2  | G4cBB4d4cB  | \
w:  Ey  ce fâ  cû   |  ey le  in *  *  saf   |  â şık_ *  ı  bî  | 
e2dccBB4g6  | 
w:  çâ *  *  re *  ne   Ah   | 
f4g2aggfg6  | c'2b2a2aggff4ed  | a4g2g2f2f4e2  | 
w:  mer hem_ i  *  *  *  lut  |  fun *  la  im *  *  *  dâd   |  ey le  gel  *  â  | 
g2feedd8z2  | z36  | d8 z2d4g2 aggf g4 a3g f2e2 g3f  | 
w:  vâ *  *  re *  ne    |  |  *  Kayd_ ı  hic *  *  *  *  rân  | 
f2e4d2 z2d4ag gf2e feed d6c2 d2{f}ed  | \
w:  *  *  *  dan  a  *  za *  *  *  *  *  *  lim   | 
d8 z2e2 d2c2 B^AB6 g2fg a2gf f2e2  | 
w:  *  ar *  tık_ a *  *  zâd_  | 
e2f4ed d2g4fe d3c dccB B6d'c' c'bb^a  | 
w:  *  et  *  *  *  *  *  *  *  *  *  *  be *  ni   SAZ  | 
b8 z2g4^a2 b2ab c'2{d'}c'b b8 {e'}d'4  | \
w:  *  Has re tin *  *  *  *  *  *  le   | 
d'c'b^a g2f2 z2c'4c'b a2g2 bc'{d'}c'b b6a2 b2{d'}c'b  | 
w:  *  *  *  *  *  *  pek  ha *  râ *  *  *  *  *  *  bım   | 
b8 z2g4gf f3e e2d2 d3e f2g2 a2{b}ag  | \
w:  *  ba ri  *  â *  *  *  bâd_  | 
f2g4f2 g2fg a2gf f3e feed d6d'c' c'bb^a  | 
w:  et  *  *  *  *  *  *  *  *  *  *  *  *  be *  ni   SAZ  | 
b8 z2g4^a2 b2ab c'2{d'}c'b b8 {e'}d'4  | \
w:  *  Has re tin *  *  *  *  *  *  le   | 
d'c'b^a g2f2 z2c'4c'b a2g2 bc'{d'}c'b b6a2 b2{d'}c'b  | 
w:  *  *  *  *  *  *  pek  ha *  râ *  *  *  *  *  *  bım   | 
b8 z2g4gf f3e e2d2 d3e f2g2 a2{b}ag  | \
w:  *  ba ri  *  â *  *  *  bâd_  | 
f2g4fe e2g4fe d3c dccB B8 z4  | 
w:  et  *  *  *  *  *  *  *  *  *  *  *  be *  ni    | 
|


